src/svg/hubot.svg

<svg height="16" width="14" xmlns="http://www.w3.org/2000/svg" viewBox="0 0 14 16">
  <path d="M3 6c-0.55 0-1 0.45-1 1v2c0 0.55 0.45 1 1 1h8c0.55 0 1-0.45 1-1V7c0-0.55-0.45-1-1-1H3z m8 1.75l-1.25 1.25h-1.5l-1.25-1.25-1.25 1.25h-1.5l-1.25-1.25v-0.75h0.75l1.25 1.25 1.25-1.25h1.5l1.25 1.25 1.25-1.25h0.75v0.75zM5 11h4v1H5v-1z m2-9C3.14 2 0 4.91 0 8.5v4.5c0 0.55 0.45 1 1 1h12c0.55 0 1-0.45 1-1V8.5c0-3.59-3.14-6.5-7-6.5z m6 11H1V8.5c0-3.09 2.64-5.59 6-5.59s6 2.5 6 5.59v4.5z" />
</svg>

<?xml version="1.0" encoding="UTF-8" standalone="no"?>
<svg width="14px" height="16px" viewBox="0 0 14 16" version="1.1" xmlns="http://www.w3.org/2000/svg" xmlns:xlink="http://www.w3.org/1999/xlink">
    <!-- Generator: Sketch 3.7.1 (28215) - http://www.bohemiancoding.com/sketch -->
    <title>hubot</title>
    <desc>Created with Sketch.</desc>
    <defs></defs>
    <g id="Octicons" stroke="none" stroke-width="1" fill="none" fill-rule="evenodd">
        <g id="hubot" fill="#000000">
            <path d="M3,6 C2.45,6 2,6.45 2,7 L2,9 C2,9.55 2.45,10 3,10 L11,10 C11.55,10 12,9.55 12,9 L12,7 C12,6.45 11.55,6 11,6 L3,6 L3,6 Z M11,7.75 L9.75,9 L8.25,9 L7,7.75 L5.75,9 L4.25,9 L3,7.75 L3,7 L3.75,7 L5,8.25 L6.25,7 L7.75,7 L9,8.25 L10.25,7 L11,7 L11,7.75 L11,7.75 Z M5,11 L9,11 L9,12 L5,12 L5,11 L5,11 Z M7,2 C3.14,2 0,4.91 0,8.5 L0,13 C0,13.55 0.45,14 1,14 L13,14 C13.55,14 14,13.55 14,13 L14,8.5 C14,4.91 10.86,2 7,2 L7,2 Z M13,13 L1,13 L1,8.5 C1,5.41 3.64,2.91 7,2.91 C10.36,2.91 13,5.41 13,8.5 L13,13 L13,13 Z" id="Shape"></path>
        </g>
    </g>
</svg>
